X:94
T: Virág János
M:2/4
L:1/4
K:G
G B | d> d | g/f/ e | d z |
G B | d> d | e/d/ c | B z |
d/d/B/d/ | c/c/A/c/ | 
B/B/G/B/ | d/d/ A | G z |